component-icons/svg/piecharts.svg

<?xml version="1.0" encoding="utf-8"?>
<!-- Generator: Adobe Illustrator 14.0.0, SVG Export Plug-In . SVG Version: 6.00 Build 43363)  -->
<!DOCTYPE svg PUBLIC "-//W3C//DTD SVG 1.1//EN" "http://www.w3.org/Graphics/SVG/1.1/DTD/svg11.dtd">
<svg version="1.1" id="Layer_1" xmlns="http://www.w3.org/2000/svg" xmlns:xlink="http://www.w3.org/1999/xlink" x="0px" y="0px"
	 width="24px" height="24px" viewBox="0 0 24 24" enable-background="new 0 0 24 24" xml:space="preserve">
<path fill="#818181" d="M13.023,0.025v10.949h10.953C23.494,5.148,18.852,0.507,13.023,0.025z M15.023,2.438
	c3.123,0.971,5.567,3.415,6.539,6.537h-6.539V2.438z M11.024,0.025c-6.158,0.509-11,5.659-11,11.949
	c0,2.953,1.072,5.654,2.842,7.744l8.158-8.158V0.025z M9.024,10.732l-5.863,5.864c-0.741-1.421-1.137-3.006-1.137-4.622
	c0-4.407,2.938-8.242,7-9.529V10.732z M4.28,21.133c2.091,1.77,4.791,2.842,7.744,2.842c6.289,0,11.441-4.842,11.949-11H12.438
	L4.28,21.133z M21.553,14.975c-1.287,4.063-5.121,7-9.529,7c-1.616,0-3.202-0.396-4.62-1.137l5.862-5.863H21.553z"/>
</svg>

<svg id="Layer_1" data-name="Layer 1" xmlns="http://www.w3.org/2000/svg" viewBox="0 0 24 24">
  <defs>
    <style>
      .cls-1 {
        fill: gray;
      }
    </style>
  </defs>
  <title>piecharts</title>
  <path class="cls-1" d="M11,0A12,12,0,0,0,2.87,19.72L11,11.56ZM9,10.73,3.16,16.6A10,10,0,0,1,9,2.45ZM13,0V11H24A12,12,0,0,0,13,0Zm2,2.41A9.91,9.91,0,0,1,21.56,9H15ZM4.28,21.13A12,12,0,0,0,24,13H12.44ZM21.55,15A10,10,0,0,1,7.4,20.84L13.27,15Z"/>
</svg>
